X:1
T:Spires, LM
T:Joseph Klug, 1543; harmony by Bach
T:Spires, LM
T:Public Domain
C:Joseph Klug, 1543; harmony by Bach
Z:Public Domain
%%score ( 1 2 ) ( 3 4 )
L:1/8
M:4/4
K:G
V:1 treble 
V:2 treble 
V:3 bass 
V:4 bass 
V:1
 (EF)(ED) (FE) [B,^D]2 | ([B,E][^DF]) [EG]2 [DF]2 [B,E]2 | [EG]2 (DE) [FA]2 [DGB]2 | %3
 [B,EG]2 (EG) (FE) [^DB]2- | [DB]2 [EB]2 (EF)(Bc) | (dc) [DGB]2 ([FA]G)(GF) | %6
 [DG]2 [B,FB]2 [B,EG]2 [B,-E][B,^D] | [B,EG]2 [DF]2 EC [B,^D]2 | [B,E]8 |] %9
V:2
 x2 G2 C2 x2 | x8 | x2 A2 x4 | x2 [EA]2 A2 x2 | x4 c2 [=DG]2 | [DA]2 x3 A2 x | x5 G2 x | x4 E2 x2 | %8
 x8 |] %9
V:3
 (G,A,) [E,B,]2 (A,G,)(B,,A,,) | ([G,,G,][F,,F,A,])([E,,E,B,][A,,C]) (F,B,) [E,,G,]2 | %2
 [E,B,]2 [F,A,]2 [D,D]2 (G,F,) | (E,D,)(C,B,,) [C,A,]2 [B,,F,]2- | [B,,F,]2 [E,G,]2 [A,,A,]2 G,,2 | %5
 F,,2 G,,2 (CB,)(CA,) | [G,B,]2 ^D,2 (E,E,,) F,,2 | (G,,A,,)(B,A,) C,A,, (F,G,/A,/) | [E,,E,G,]8 |] %9
V:4
 [E,,E,]2 x A,,2 F,2 x | x4 B,,2 x2 | x8 | x8 | x8 | x4 D,2 D,2 | x8 | x2 B,,2 G,2 B,,2 | x8 |] %9

